X: 1
T: Charlie Harris's
M: 2/4
L: 1/8
R: polka
K: Dmaj
d>B|:AF DF|EF DF|AF AB|e2 d>B|
AF DF|EF DF|AF AB|1 d2 d>B:|2 d2 dA||
d2 f>d|ef dB|AF AB|e2 dA|
d2 f>d|ef dB|AF AB|d2 dA|
d2 f>d|ef dB|AF AB|e2 dB|
df f/e/f/g/|af f>g|af ef|d2||
